icons/file/icon_account-rub_m_white.svg

<svg width="24" height="24" viewBox="0 0 24 24" xmlns="http://www.w3.org/2000/svg"><g fill="none" fill-rule="evenodd"><path d="M0 0h24v24H0z"/><path d="M19 23H5c-1.1 0-2-.9-2-2V3c0-1.1.9-2 2-2h10.7L21 6.3V21c0 1.1-.9 2-2 2zM5 2c-.6 0-1 .4-1 1v18c0 .6.4 1 1 1h14c.6 0 1-.4 1-1V6.7L15.3 2H5z" fill="#FFF"/><path d="M9 18h1v-2h4v-1h-4v-1h2.3c2.1 0 3.7-1.6 3.7-3.5S14.4 7 12.3 7H9v6H7v1h2v1H7v1h2v2zm1-10h2.1c1.7 0 2.9 1 2.9 2.5S13.8 13 12.1 13H10V8z" fill="#FFF" opacity=".3"/></g></svg>

<?xml version="1.0" encoding="UTF-8"?>
<svg width="24px" height="24px" viewBox="0 0 24 24" version="1.1" xmlns="http://www.w3.org/2000/svg" xmlns:xlink="http://www.w3.org/1999/xlink">
    <!-- Generator: Sketch 48.2 (47327) - http://www.bohemiancoding.com/sketch -->
    <title>icon_account-rub_m_white</title>
    <desc>Created with Sketch.</desc>
    <defs></defs>
    <g id="mobile" stroke="none" stroke-width="1" fill="none" fill-rule="evenodd" transform="translate(-748.000000, -153.000000)">
        <g id="Headings" transform="translate(64.000000, 77.000000)"></g>
        <g id="icon_tool_account_rub__m__white" transform="translate(748.000000, 153.000000)">
            <g id="ungroup">
                <rect id="Rectangle-path" x="0" y="0" width="24" height="24"></rect>
                <path d="M19,23 L5,23 C3.9,23 3,22.1 3,21 L3,3 C3,1.9 3.9,1 5,1 L15.7,1 L21,6.3 L21,21 C21,22.1 20.1,23 19,23 L19,23 Z M5,2 C4.4,2 4,2.4 4,3 L4,21 C4,21.6 4.4,22 5,22 L19,22 C19.6,22 20,21.6 20,21 L20,6.7 L15.3,2 L5,2 L5,2 Z" id="Shape" fill="#FFFFFF"></path>
                <path d="M9,18 L10,18 L10,16 L14,16 L14,15 L10,15 L10,14 L12.3,14 C14.4,14 16,12.4 16,10.5 C16,8.6 14.4,7 12.3,7 L9,7 L9,13 L7,13 L7,14 L9,14 L9,15 L7,15 L7,16 L9,16 L9,18 L9,18 Z M10,8 L12.1,8 C13.8,8 15,9 15,10.5 C15,12 13.8,13 12.1,13 L10,13 L10,8 L10,8 Z" id="Shape" fill="#FFFFFF" opacity="0.3"></path>
            </g>
        </g>
    </g>
</svg>
